X:1
T:We Three Kings
T:We Three Kings
T:John Henry Hopkins, Jr.
T:John Henry Hopkins, Jr., 1857
T:Public Domain Courtesy of the Cyber Hymnal™
C:John Henry Hopkins, Jr.
Z:Public Domain
Z:Courtesy of the Cyber Hymnal™
%%score ( 1 2 ) ( 3 4 )
L:1/8
Q:1/4=80
M:3/8
K:G
V:1 treble 
V:2 treble 
V:3 bass 
V:4 bass 
V:1
 [GB]2 [FA] | [EG]2 E | [^DF][DG][DF] | E3 | [GB]2 [FA] | [EG]2 E | [^DF][DG][DF] | E3 | %8
w: 1.~We three|kings of|Or- i- ent|are;|Bear- ing|gifts we|tra- verse a-|far,|
w: 2.~Born a|King on|Beth- le- hem’s|plain|Gold I|bring to|crown Him a-|gain,|
w: 3.~Frank- in-|cense to|of- fer have|I;|In- cense|owns a|De- i- ty|nigh;|
w: 4.~Myrrh is|mine, its|bit- ter per-|fume|Breathes a|life of|ga- ther- ing|gloom;|
w: 5.~Glor- ious|now be-|hold Him a-|rise;|King and|God and|s- a- cri-|fice;|
 [EG]2 [EG] | [FA]2 [FA] | [GB]2 [GB] | ([Gd][Fc])[GB] | [EA][EB][EA] | [EG]2 [^DF] | E3- E3 || %15
w: Field and|fount- ain,|moor and|mount- * ain,|Fol- low- ing|yon- der|star. *|
w: King for-|ev- er,|ceas- ing|ne- * ver,|O- ver us|all to|reign. *|
w: Prayer and|prais- ing,|voic- es|rais- * ing,|Wor- ship- ping|God on|high. *|
w: Sor- rowing,|sighi- ng,|bleed- ing,|dy- * ing,|Sealed in the|stone cold|tomb. *|
w: Al- le-|lu- ia,|Al- le-|lu- * ia,|Sounds through the|earth and|skies. *|
"^Refrain" ([DF]3 | [DA]3) | [DG]2 [DG] | [DG]2 [B,D] | [EG]2 [CE] | [DG]3 | [DG]2 [DG] | %22
w: |||||||
w: |||||||
w: |||||||
w: |||||||
w: |||||||
 [DG]2 [B,D] | [EG]2 [CE] | [DG]3 | [EG]2 [EG] [FA]2 [GB] | [Gc]2 [GB] x3 | [FA]2 [GB] | %28
w: ||||||
w: ||||||
w: ||||||
w: ||||||
w: ||||||
 [DG]2 [DG] | [DG]2 [B,D] | [EG]2 [CE] | [DG]3 |] x3 |] %33
w: |||||
w: |||||
w: |||||
w: |||||
w: |||||
V:2
 x3 | x2 E | x3 | E3 | x3 | x2 E | x3 | E3 | x3 | x3 | x3 | x3 | x3 | x3 | E3- E3 || x3 | x3 | x3 | %18
 x3 | x3 | x3 | x3 | x3 | x3 | x3 | x6 | x6 | x3 | x3 | x3 | x3 | x3 |] x3 |] %33
V:3
 [E,B,]2 [E,B,] | [E,B,]2 [E,G,] | [B,,A,][B,,B,][B,,A,] | [E,G,]3 | [E,B,]2 [E,B,] | %5
w: ~ ~|~ ~|~ ~ ~|~|~ ~|
 [E,B,]2 [E,G,] | [B,,A,][B,,B,][B,,A,] | [E,G,]3 | [E,B,]2 [E,B,] | [D,D]2 [D,D] | [G,D]2 [G,D] | %11
w: ~ ~|~ ~ ~|~|~ ~|~ ~|~ ~|
 B,[A,C][G,D] | [A,C][A,C][A,C] | B,2 [B,,A,] | [E,G,]3- x3 || [E,G,]3 | ([D,A,]3 | [D,C]3) | %18
w: ~ ~ ~|* ~ ~|~ ~|~||O||
 [G,B,]2 [G,B,] | [G,B,]2 G, | [C,G,]2 [C,G,] | [G,B,]3 | [G,B,]2 [G,B,] | [G,B,]2 G, | %24
w: star of|won- der,|star of|light,|Star with|roy- al|
 [E,B,]2 [C,G,] | [G,,G,B,]3 x3 | [E,B,]2 [E,B,] [D,D]2 [G,D] | [C,E]2 [G,D] | [D,D]2 [G,D] | %29
w: beau- ty|bright,|West- ward lead- ing,|still pro-|ceed- ing,|
 [G,B,]2 [G,B,] | [G,B,]2 [G,B,] | [C,G,]2 [C,G,] |] [G,,G,B,]3 |] %33
w: Guide us|to thy|per- fect|light.|
V:4
 x3 | x3 | x3 | x3 | x3 | x3 | x3 | x3 | x3 | x3 | x3 | B, x2 | x3 | B,2 x | x6 || x3 | x3 | x3 | %18
 x3 | x2 G, | x3 | x3 | x3 | x2 G, | x3 | x6 | x6 | x3 | x3 | x3 | x3 | x3 |] x3 |] %33

